Newaita-dark/apps/22/com.github.lainsce.coin.svg

<svg height="22" viewBox="0 0 22 22" width="22" xmlns="http://www.w3.org/2000/svg" xmlns:xlink="http://www.w3.org/1999/xlink"><linearGradient id="a"><stop offset="0" stop-opacity=".313726"/><stop offset=".222222" stop-opacity=".27451"/><stop offset="1" stop-opacity="0"/></linearGradient><radialGradient id="b" cx="450.908936" cy="189.579361" gradientTransform="matrix(.00000012 -.0537161 -.0966889 -.00000007 30.609667 43.721789)" gradientUnits="userSpaceOnUse" r="21.166656" xlink:href="#a"/><radialGradient id="c" cx="450.908936" cy="189.579361" gradientTransform="matrix(-.00000012 .0537161 .0966889 .00000007 -8.779457 -5.175144)" gradientUnits="userSpaceOnUse" r="21.166656" xlink:href="#a"/><radialGradient id="d" cx="450.908936" cy="189.579361" gradientTransform="matrix(-.00000012 -.0537161 .0966889 -.00000007 -8.779457 43.721789)" gradientUnits="userSpaceOnUse" r="21.166656" xlink:href="#a"/><radialGradient id="e" cx="450.908936" cy="189.579361" gradientTransform="matrix(.00000012 .0537161 -.0966889 .00000007 30.609666 -5.175144)" gradientUnits="userSpaceOnUse" r="21.166656" xlink:href="#a"/><linearGradient id="f" gradientTransform="matrix(.00918504 0 0 .0429729 8.569953 9.239164)" gradientUnits="userSpaceOnUse" x1="255.323059" x2="255.323044" y1="233.5" y2="254.666656"><stop offset="0" stop-opacity=".27451"/><stop offset="1" stop-opacity="0"/></linearGradient><linearGradient id="g" gradientUnits="userSpaceOnUse" x1="10.9151166" x2="10.9151166" y1="1.99106697081" y2="19.27333515"><stop offset="0" stop-color="#ffb74d"/><stop offset="1" stop-color="#ffa726"/></linearGradient><linearGradient id="h" gradientTransform="matrix(.0429729 0 0 -.0429729 0 9.239163)" gradientUnits="userSpaceOnUse" x1="254" x2="254" y1="-201.75" y2="136.916672"><stop offset="0" stop-color="#e0e0e0"/><stop offset="1" stop-color="#bdbdbd"/></linearGradient><linearGradient id="i" gradientUnits="userSpaceOnUse" x1="10.9151166" x2="10.9151166" y1="1.99106697081" y2="19.27333515"><stop offset="0" stop-color="#616161"/><stop offset="1" stop-color="#424242"/></linearGradient><path d="m12.507812 19.273438h1.816407v-.910157h-1.816407zm0 0" fill="url(#b)"/><path d="m9.324219 19.273438h-1.820313v.910156h1.820313zm0 0" fill="url(#c)"/><path d="m9.324219 19.273438h-1.820313v-.910157h1.820313zm0 0" fill="url(#d)"/><path d="m12.507812 19.273438h1.816407v.910156h-1.816407zm0 0" fill="url(#e)"/><path d="m9.324219 19.046875h3.183593v1.136719h-3.183593zm0 0" fill="url(#f)"/><path d="m10.914062 1.992188c4.773438 0 8.640626 3.867187 8.640626 8.640624 0 4.773438-3.867188 8.640626-8.640626 8.640626-4.769531 0-8.640624-3.867188-8.640624-8.640626 0-4.773437 3.871093-8.640624 8.640624-8.640624zm0 0" fill="url(#g)"/><path d="m10.914062 19.273438c-4.785156 0-8.640624-3.855469-8.640624-8.640626 0-.027343 0-.058593 0-.085937.046874 4.75 3.882812 8.558594 8.640624 8.558594 4.761719 0 8.597657-3.808594 8.640626-8.558594v.085937c0 4.785157-3.851563 8.640626-8.640626 8.640626zm0 0" fill-opacity=".196078"/><path d="m10.914062 1.992188c-4.785156 0-8.640624 3.851562-8.640624 8.640624v.085938c.046874-4.75 3.882812-8.558594 8.640624-8.558594 4.761719 0 8.597657 3.808594 8.640626 8.558594 0-.03125 0-.058594 0-.085938 0-4.789062-3.851563-8.640624-8.640626-8.640624zm0 0" fill="#fff" fill-opacity=".392157"/><path d="m10.914062 1.925781c-4.820312 0-8.703124 3.882813-8.703124 8.707031 0 4.820313 3.882812 8.703126 8.703124 8.703126 4.824219 0 8.707032-3.882813 8.707032-8.703126 0-4.824218-3.882813-8.707031-8.707032-8.707031zm0 .128907c4.753907 0 8.578126 3.824218 8.578126 8.578124 0 4.75-3.824219 8.574219-8.578126 8.574219-4.75 0-8.574218-3.824219-8.574218-8.574219 0-4.753906 3.824218-8.578124 8.574218-8.578124zm0 0" fill="#212121"/><path d="m10.914062 17.910156c4.019532 0 7.277344-3.257812 7.277344-7.277344 0-4.019531-3.257812-7.277343-7.277344-7.277343-4.019531 0-7.277343 3.257812-7.277343 7.277343 0 4.019532 3.257812 7.277344 7.277343 7.277344zm0 0" fill="url(#h)"/><path d="m3.640625 10.804688c0 .054687-.003906.113281-.003906.167968 0 4.03125 3.246093 7.277344 7.277343 7.277344s7.277344-3.246094 7.277344-7.277344c0-.054687 0-.113281 0-.167968-.089844 3.949218-3.300781 7.105468-7.277344 7.105468-3.972656 0-7.183593-3.15625-7.273437-7.105468zm0 0" fill="#fff" fill-opacity=".392157"/><path d="m10.914062 3.355469c-4.03125 0-7.277343 3.246093-7.277343 7.277343 0 .035157.003906.074219.003906.109376.058594-3.976563 3.28125-7.160157 7.273437-7.160157 3.992188 0 7.214844 3.183594 7.277344 7.160157 0-.035157 0-.074219 0-.109376 0-4.03125-3.246094-7.277343-7.277344-7.277343zm0 0" fill-opacity=".235294"/><path d="m253.975747-201.778381c93.536522 0 169.347464 75.810942 169.347464 169.347464s-75.810942 169.347465-169.347464 169.347465c-93.536523 0-169.347465-75.810943-169.347465-169.347465s75.810942-169.347464 169.347465-169.347464zm0 0" fill="none" stroke="#212121" stroke-linecap="round" stroke-width="3" transform="matrix(.0429729 0 0 -.0429729 0 9.239163)"/><path d="m10.460938 6.085938h.910156c.25 0 .453125.203124.453125.453124v8.1875c0 .25-.203125.453126-.453125.453126h-.910156c-.25 0-.457032-.203126-.457032-.453126v-8.1875c0-.25.207032-.453124.457032-.453124zm0 0" fill="url(#i)"/><path d="m10.460938 6.085938c-.253907 0-.457032.199218-.457032.453124v.226563c0-.25.203125-.453125.457032-.453125h.910156c.25 0 .453125.203125.453125.453125v-.226563c0-.253906-.203125-.453124-.453125-.453124zm0 0" fill="#fff" fill-opacity=".392157"/><path d="m10.003906 14.726562v.339844c0 .253906.203125.453125.457032.453125h.910156c.25 0 .453125-.199219.453125-.453125v-.339844c0 .25-.203125.453126-.453125.453126h-.910156c-.253907 0-.457032-.203126-.457032-.453126zm0 0" fill-opacity=".235294"/><path d="m243.431299-73.377161h21.179796c5.817626 0 10.544447 4.726822 10.544447 10.544448v190.52726c0 5.817626-4.726821 10.544448-10.544447 10.544448h-21.179796c-5.817626 0-10.635348-4.726822-10.635348-10.544448v-190.52726c0-5.817626 4.817722-10.544448 10.635348-10.544448zm0 0" fill="none" stroke="#212121" stroke-linecap="round" stroke-linejoin="round" stroke-width="3" transform="matrix(.0429729 0 0 .0429729 0 9.239163)"/></svg>

<?xml version="1.0" encoding="UTF-8"?>
<svg xmlns="http://www.w3.org/2000/svg" xmlns:xlink="http://www.w3.org/1999/xlink" width="22px" height="22px" viewBox="0 0 22 22" version="1.1">
<defs>
<radialGradient id="radial0" gradientUnits="userSpaceOnUse" cx="450.908936" cy="189.579361" fx="450.908936" fy="189.579361" r="21.166656" gradientTransform="matrix(0.000000119742,-0.0537161,-0.0966889,-0.0000000698078,30.609667,43.721789)">
<stop offset="0" style="stop-color:rgb(0%,0%,0%);stop-opacity:0.313726;"/>
<stop offset="0.222222" style="stop-color:rgb(0%,0%,0%);stop-opacity:0.27451;"/>
<stop offset="1" style="stop-color:rgb(0%,0%,0%);stop-opacity:0;"/>
</radialGradient>
<radialGradient id="radial1" gradientUnits="userSpaceOnUse" cx="450.908936" cy="189.579361" fx="450.908936" fy="189.579361" r="21.166656" gradientTransform="matrix(-0.000000119742,0.0537161,0.0966889,0.0000000698078,-8.779457,-5.175144)">
<stop offset="0" style="stop-color:rgb(0%,0%,0%);stop-opacity:0.313726;"/>
<stop offset="0.222222" style="stop-color:rgb(0%,0%,0%);stop-opacity:0.27451;"/>
<stop offset="1" style="stop-color:rgb(0%,0%,0%);stop-opacity:0;"/>
</radialGradient>
<radialGradient id="radial2" gradientUnits="userSpaceOnUse" cx="450.908936" cy="189.579361" fx="450.908936" fy="189.579361" r="21.166656" gradientTransform="matrix(-0.000000119742,-0.0537161,0.0966889,-0.0000000698078,-8.779457,43.721789)">
<stop offset="0" style="stop-color:rgb(0%,0%,0%);stop-opacity:0.313726;"/>
<stop offset="0.222222" style="stop-color:rgb(0%,0%,0%);stop-opacity:0.27451;"/>
<stop offset="1" style="stop-color:rgb(0%,0%,0%);stop-opacity:0;"/>
</radialGradient>
<radialGradient id="radial3" gradientUnits="userSpaceOnUse" cx="450.908936" cy="189.579361" fx="450.908936" fy="189.579361" r="21.166656" gradientTransform="matrix(0.000000119742,0.0537161,-0.0966889,0.0000000698078,30.609666,-5.175144)">
<stop offset="0" style="stop-color:rgb(0%,0%,0%);stop-opacity:0.313726;"/>
<stop offset="0.222222" style="stop-color:rgb(0%,0%,0%);stop-opacity:0.27451;"/>
<stop offset="1" style="stop-color:rgb(0%,0%,0%);stop-opacity:0;"/>
</radialGradient>
<linearGradient id="linear0" gradientUnits="userSpaceOnUse" x1="255.323059" y1="233.5" x2="255.323044" y2="254.666656" gradientTransform="matrix(0.00918504,0,0,0.0429729,8.569953,9.239164)">
<stop offset="0" style="stop-color:rgb(0%,0%,0%);stop-opacity:0.27451;"/>
<stop offset="1" style="stop-color:rgb(0%,0%,0%);stop-opacity:0;"/>
</linearGradient>
<linearGradient id="linear1" gradientUnits="userSpaceOnUse" x1="254" y1="-168.666672" x2="254" y2="233.5" gradientTransform="matrix(0.0429729,0,0,0.0429729,0,9.239163)">
<stop offset="0" style="stop-color:rgb(100%,71.764708%,30.19608%);stop-opacity:1;"/>
<stop offset="1" style="stop-color:rgb(100%,65.490198%,14.901961%);stop-opacity:1;"/>
</linearGradient>
<linearGradient id="linear2" gradientUnits="userSpaceOnUse" x1="254" y1="-201.75" x2="254" y2="136.916672" gradientTransform="matrix(0.0429729,0,0,-0.0429729,0,9.239163)">
<stop offset="0" style="stop-color:rgb(87.843138%,87.843138%,87.843138%);stop-opacity:1;"/>
<stop offset="1" style="stop-color:rgb(74.117649%,74.117649%,74.117649%);stop-opacity:1;"/>
</linearGradient>
<linearGradient id="linear3" gradientUnits="userSpaceOnUse" x1="254" y1="-168.666672" x2="254" y2="233.5" gradientTransform="matrix(0.0429729,0,0,0.0429729,0,9.239163)">
<stop offset="0" style="stop-color:rgb(38.039216%,38.039216%,38.039216%);stop-opacity:1;"/>
<stop offset="1" style="stop-color:rgb(25.882354%,25.882354%,25.882354%);stop-opacity:1;"/>
</linearGradient>
</defs>
<g id="surface1">
<path style=" stroke:none;fill-rule:nonzero;fill:url(#radial0);" d="M 12.507812 19.273438 L 14.324219 19.273438 L 14.324219 18.363281 L 12.507812 18.363281 Z M 12.507812 19.273438 "/>
<path style=" stroke:none;fill-rule:nonzero;fill:url(#radial1);" d="M 9.324219 19.273438 L 7.503906 19.273438 L 7.503906 20.183594 L 9.324219 20.183594 Z M 9.324219 19.273438 "/>
<path style=" stroke:none;fill-rule:nonzero;fill:url(#radial2);" d="M 9.324219 19.273438 L 7.503906 19.273438 L 7.503906 18.363281 L 9.324219 18.363281 Z M 9.324219 19.273438 "/>
<path style=" stroke:none;fill-rule:nonzero;fill:url(#radial3);" d="M 12.507812 19.273438 L 14.324219 19.273438 L 14.324219 20.183594 L 12.507812 20.183594 Z M 12.507812 19.273438 "/>
<path style=" stroke:none;fill-rule:nonzero;fill:url(#linear0);" d="M 9.324219 19.046875 L 12.507812 19.046875 L 12.507812 20.183594 L 9.324219 20.183594 Z M 9.324219 19.046875 "/>
<path style=" stroke:none;fill-rule:nonzero;fill:url(#linear1);" d="M 10.914062 1.992188 C 15.6875 1.992188 19.554688 5.859375 19.554688 10.632812 C 19.554688 15.40625 15.6875 19.273438 10.914062 19.273438 C 6.144531 19.273438 2.273438 15.40625 2.273438 10.632812 C 2.273438 5.859375 6.144531 1.992188 10.914062 1.992188 Z M 10.914062 1.992188 "/>
<path style=" stroke:none;fill-rule:nonzero;fill:rgb(0%,0%,0%);fill-opacity:0.196078;" d="M 10.914062 19.273438 C 6.128906 19.273438 2.273438 15.417969 2.273438 10.632812 C 2.273438 10.605469 2.273438 10.574219 2.273438 10.546875 C 2.320312 15.296875 6.15625 19.105469 10.914062 19.105469 C 15.675781 19.105469 19.511719 15.296875 19.554688 10.546875 C 19.554688 10.574219 19.554688 10.605469 19.554688 10.632812 C 19.554688 15.417969 15.703125 19.273438 10.914062 19.273438 Z M 10.914062 19.273438 "/>
<path style=" stroke:none;fill-rule:nonzero;fill:rgb(100%,100%,100%);fill-opacity:0.392157;" d="M 10.914062 1.992188 C 6.128906 1.992188 2.273438 5.84375 2.273438 10.632812 C 2.273438 10.660156 2.273438 10.6875 2.273438 10.71875 C 2.320312 5.96875 6.15625 2.160156 10.914062 2.160156 C 15.675781 2.160156 19.511719 5.96875 19.554688 10.71875 C 19.554688 10.6875 19.554688 10.660156 19.554688 10.632812 C 19.554688 5.84375 15.703125 1.992188 10.914062 1.992188 Z M 10.914062 1.992188 "/>
<path style=" stroke:none;fill-rule:nonzero;fill:rgb(12.941177%,12.941177%,12.941177%);fill-opacity:1;" d="M 10.914062 1.925781 C 6.09375 1.925781 2.210938 5.808594 2.210938 10.632812 C 2.210938 15.453125 6.09375 19.335938 10.914062 19.335938 C 15.738281 19.335938 19.621094 15.453125 19.621094 10.632812 C 19.621094 5.808594 15.738281 1.925781 10.914062 1.925781 Z M 10.914062 2.054688 C 15.667969 2.054688 19.492188 5.878906 19.492188 10.632812 C 19.492188 15.382812 15.667969 19.207031 10.914062 19.207031 C 6.164062 19.207031 2.339844 15.382812 2.339844 10.632812 C 2.339844 5.878906 6.164062 2.054688 10.914062 2.054688 Z M 10.914062 2.054688 "/>
<path style=" stroke:none;fill-rule:nonzero;fill:url(#linear2);" d="M 10.914062 17.910156 C 14.933594 17.910156 18.191406 14.652344 18.191406 10.632812 C 18.191406 6.613281 14.933594 3.355469 10.914062 3.355469 C 6.894531 3.355469 3.636719 6.613281 3.636719 10.632812 C 3.636719 14.652344 6.894531 17.910156 10.914062 17.910156 Z M 10.914062 17.910156 "/>
<path style=" stroke:none;fill-rule:nonzero;fill:rgb(100%,100%,100%);fill-opacity:0.392157;" d="M 3.640625 10.804688 C 3.640625 10.859375 3.636719 10.917969 3.636719 10.972656 C 3.636719 15.003906 6.882812 18.25 10.914062 18.25 C 14.945312 18.25 18.191406 15.003906 18.191406 10.972656 C 18.191406 10.917969 18.191406 10.859375 18.191406 10.804688 C 18.101562 14.753906 14.890625 17.910156 10.914062 17.910156 C 6.941406 17.910156 3.730469 14.753906 3.640625 10.804688 Z M 3.640625 10.804688 "/>
<path style=" stroke:none;fill-rule:nonzero;fill:rgb(0%,0%,0%);fill-opacity:0.235294;" d="M 10.914062 3.355469 C 6.882812 3.355469 3.636719 6.601562 3.636719 10.632812 C 3.636719 10.667969 3.640625 10.707031 3.640625 10.742188 C 3.699219 6.765625 6.921875 3.582031 10.914062 3.582031 C 14.90625 3.582031 18.128906 6.765625 18.191406 10.742188 C 18.191406 10.707031 18.191406 10.667969 18.191406 10.632812 C 18.191406 6.601562 14.945312 3.355469 10.914062 3.355469 Z M 10.914062 3.355469 "/>
<path style="fill:none;stroke-width:3;stroke-linecap:round;stroke-linejoin:miter;stroke:rgb(12.941177%,12.941177%,12.941177%);stroke-opacity:1;stroke-miterlimit:4;" d="M 253.975747 -201.778381 C 347.512269 -201.778381 423.323211 -125.967439 423.323211 -32.430917 C 423.323211 61.105605 347.512269 136.916548 253.975747 136.916548 C 160.439224 136.916548 84.628282 61.105605 84.628282 -32.430917 C 84.628282 -125.967439 160.439224 -201.778381 253.975747 -201.778381 Z M 253.975747 -201.778381 " transform="matrix(0.0429729,0,0,-0.0429729,0,9.239163)"/>
<path style=" stroke:none;fill-rule:nonzero;fill:url(#linear3);" d="M 10.460938 6.085938 L 11.371094 6.085938 C 11.621094 6.085938 11.824219 6.289062 11.824219 6.539062 L 11.824219 14.726562 C 11.824219 14.976562 11.621094 15.179688 11.371094 15.179688 L 10.460938 15.179688 C 10.210938 15.179688 10.003906 14.976562 10.003906 14.726562 L 10.003906 6.539062 C 10.003906 6.289062 10.210938 6.085938 10.460938 6.085938 Z M 10.460938 6.085938 "/>
<path style=" stroke:none;fill-rule:nonzero;fill:rgb(100%,100%,100%);fill-opacity:0.392157;" d="M 10.460938 6.085938 C 10.207031 6.085938 10.003906 6.285156 10.003906 6.539062 L 10.003906 6.765625 C 10.003906 6.515625 10.207031 6.3125 10.460938 6.3125 L 11.371094 6.3125 C 11.621094 6.3125 11.824219 6.515625 11.824219 6.765625 L 11.824219 6.539062 C 11.824219 6.285156 11.621094 6.085938 11.371094 6.085938 Z M 10.460938 6.085938 "/>
<path style=" stroke:none;fill-rule:nonzero;fill:rgb(0%,0%,0%);fill-opacity:0.235294;" d="M 10.003906 14.726562 L 10.003906 15.066406 C 10.003906 15.320312 10.207031 15.519531 10.460938 15.519531 L 11.371094 15.519531 C 11.621094 15.519531 11.824219 15.320312 11.824219 15.066406 L 11.824219 14.726562 C 11.824219 14.976562 11.621094 15.179688 11.371094 15.179688 L 10.460938 15.179688 C 10.207031 15.179688 10.003906 14.976562 10.003906 14.726562 Z M 10.003906 14.726562 "/>
<path style="fill:none;stroke-width:3;stroke-linecap:round;stroke-linejoin:round;stroke:rgb(12.941177%,12.941177%,12.941177%);stroke-opacity:1;stroke-miterlimit:4;" d="M 243.431299 -73.377161 L 264.611095 -73.377161 C 270.428721 -73.377161 275.155542 -68.650339 275.155542 -62.832713 L 275.155542 127.694547 C 275.155542 133.512173 270.428721 138.238995 264.611095 138.238995 L 243.431299 138.238995 C 237.613673 138.238995 232.795951 133.512173 232.795951 127.694547 L 232.795951 -62.832713 C 232.795951 -68.650339 237.613673 -73.377161 243.431299 -73.377161 Z M 243.431299 -73.377161 " transform="matrix(0.0429729,0,0,0.0429729,0,9.239163)"/>
</g>
</svg>
